images/45lbs-Plate.svg

<svg height="72" viewBox="0 0 8 72" width="8" xmlns="http://www.w3.org/2000/svg"><g fill="none" transform="matrix(-1 0 0 1 8 0)"><rect fill="#00f" height="72" rx="4" width="8"/><g fill="#fff" transform="matrix(-1 0 0 1 7 26)"><path d="m3.49804706 5.52441406v-3.16894531l-2.24121094 3.16894531zm.01464844 2.47558594v-1.70898438h-3.06640625v-.859375l3.203125-4.44335937h.7421875v4.53613281h1.03027344v.76660156h-1.03027344v1.70898438z"/><path d="m1.42773456 17.2177734c.05859405.5013046.29133911.8479808.69824219 1.0400391.20833437.0976567.44921738.1464844.72265625.1464844.52083594 0 .90657427-.166014 1.15722656-.4980469.2506523-.3320329.37597656-.6998678.37597656-1.1035156 0-.4882837-.14892429-.8658841-.44677734-1.1328125s-.65510859-.4003907-1.07177734-.4003907c-.30273589 0-.56233616.0585932-.7788086.1757813-.21647243.1171881-.40120366.2799469-.55419922.4882813l-.76171874-.0439454.53222656-3.7646484h3.6328125v.8496094h-2.97363282l-.29785156 1.9433594c.16276123-.1236986.31738208-.2164711.46386719-.2783204.26041797-.1074224.56152173-.1611328.90332031-.1611328.64127925 0 1.18489361.2067037 1.63085938.6201172s.66894531.9374968.66894531 1.5722656c0 .6608106-.20426228 1.2434871-.61279297 1.7480469s-1.06037964.7568359-1.95556641.7568359c-.5696643 0-1.07340275-.1603174-1.51123046-.480957s-.68277969-.8129849-.73486328-1.4770508z"/></g></g></svg>

<?xml version="1.0" encoding="UTF-8"?>
<svg width="8px" height="72px" viewBox="0 0 8 72" version="1.1" xmlns="http://www.w3.org/2000/svg" xmlns:xlink="http://www.w3.org/1999/xlink">
    <!-- Generator: Sketch 43.1 (39012) - http://www.bohemiancoding.com/sketch -->
    <title>45lbs-Plate</title>
    <desc>Created with Sketch.</desc>
    <defs></defs>
    <g id="Page-1" stroke="none" stroke-width="1" fill="none" fill-rule="evenodd">
        <g id="45lbs-Plate" fill-rule="nonzero">
            <g id="Group" transform="translate(4.000000, 36.000000) scale(-1, 1) translate(-4.000000, -36.000000) ">
                <rect id="Rectangle-path" fill="#0000FF" x="0" y="0" width="8" height="72" rx="4"></rect>
                <g transform="translate(4.000000, 36.000000) scale(-1, 1) translate(-4.000000, -36.000000) translate(1.000000, 26.000000)" fill="#FFFFFF">
                    <path d="M3.49804706,5.52441406 L3.49804706,2.35546875 L1.25683612,5.52441406 L3.49804706,5.52441406 Z M3.5126955,8 L3.5126955,6.29101562 L0.44628925,6.29101562 L0.44628925,5.43164062 L3.64941425,0.98828125 L4.39160175,0.98828125 L4.39160175,5.52441406 L5.42187519,5.52441406 L5.42187519,6.29101562 L4.39160175,6.29101562 L4.39160175,8 L3.5126955,8 Z" id="4"></path>
                    <path d="M1.42773456,17.2177734 C1.48632861,17.719078 1.71907367,18.0657542 2.12597675,18.2578125 C2.33431112,18.3554692 2.57519413,18.4042969 2.848633,18.4042969 C3.36946894,18.4042969 3.75520727,18.2382829 4.00585956,17.90625 C4.25651186,17.5742171 4.38183612,17.2063822 4.38183612,16.8027344 C4.38183612,16.3144507 4.23291183,15.9368503 3.93505878,15.6699219 C3.63720573,15.4029935 3.27995019,15.2695312 2.86328144,15.2695312 C2.56054555,15.2695312 2.30094528,15.3281244 2.08447284,15.4453125 C1.86800041,15.5625006 1.68326918,15.7252594 1.53027362,15.9335938 L0.768554875,15.8896484 L1.30078144,12.125 L4.93359394,12.125 L4.93359394,12.9746094 L1.95996112,12.9746094 L1.66210956,14.9179688 C1.82487079,14.7942702 1.97949164,14.7014977 2.12597675,14.6396484 C2.38639472,14.532226 2.68749848,14.4785156 3.02929706,14.4785156 C3.67057631,14.4785156 4.21419067,14.6852193 4.66015644,15.0986328 C5.10612221,15.5120463 5.32910175,16.0361296 5.32910175,16.6708984 C5.32910175,17.331709 5.12483947,17.9143855 4.71630878,18.4189453 C4.30777809,18.9235051 3.65592914,19.1757812 2.76074237,19.1757812 C2.19107807,19.1757812 1.68733962,19.0154638 1.24951191,18.6948242 C0.811684196,18.3741846 0.566732219,17.8818393 0.514648625,17.2177734 L1.42773456,17.2177734 Z" id="5"></path>
                </g>
            </g>
        </g>
    </g>
</svg>
